public/assets/reiki.svg

<svg width="487" height="431" viewBox="0 0 487 431" fill="none" xmlns="http://www.w3.org/2000/svg">
<path fill-rule="evenodd" clip-rule="evenodd" d="M425.909 67.3813C414.189 67.3813 409.927 53.133 403.269 45.3139C398.505 39.7195 390.374 41.3877 387.968 33.5556C381.916 13.8613 398.113 0 419.244 0C440.374 0 454.621 12.1568 457.698 30.4316C460.774 48.7065 447.039 67.3813 425.909 67.3813Z" fill="#2C1B18"/>
<path fill-rule="evenodd" clip-rule="evenodd" d="M393.973 28.2554C388.031 39.503 388.737 68.0333 396.417 70.0436C399.48 70.8452 406.004 68.8815 412.644 64.8173L408.476 94.7612H433.087L424.615 54.6588C429.34 49.0266 432.538 42.1245 432.003 34.3904C430.464 12.1054 399.916 17.0079 393.973 28.2554Z" fill="#915B3C"/>
<path fill-rule="evenodd" clip-rule="evenodd" d="M392.497 28.3185C397.203 29.2158 406.682 33.7788 414.24 40.3243C415.134 39.8435 416.158 39.5706 417.247 39.5706C420.734 39.5706 423.561 42.3679 423.561 45.8186C423.561 47.227 423.09 48.5266 422.295 49.5715C423.791 52.0756 424.812 54.7062 425.147 57.4105C430.332 57.4105 449.255 37.4879 430.404 18.744C411.553 -6.35333e-07 384.311 26.758 392.497 28.3185Z" fill="#2C1B18"/>
<path fill-rule="evenodd" clip-rule="evenodd" d="M441.291 181.192L403.728 312.636L386.06 411.326H368.327L386.029 181.192H441.291Z" fill="#915B3C"/>
<path fill-rule="evenodd" clip-rule="evenodd" d="M441.291 181.192L403.728 312.636L386.06 411.326H368.327L386.029 181.192H441.291Z" fill="black" fill-opacity="0.1"/>
<path fill-rule="evenodd" clip-rule="evenodd" d="M458.172 181.192C455.551 249.476 456.584 286.72 457.171 292.924C457.758 299.128 461.088 340.678 483.781 413.409H465.337C435.284 343.636 424.792 302.086 421.345 292.924C417.898 283.762 407.718 246.518 392.856 181.192H458.172Z" fill="#915B3C"/>
<path fill-rule="evenodd" clip-rule="evenodd" d="M442.097 181.192C432.326 226.422 415.427 298.621 391.4 397.789H365.463C363.547 296.003 371.697 229.01 385.809 181.192H442.097Z" fill="#7D3336"/>
<path fill-rule="evenodd" clip-rule="evenodd" d="M458.303 181.192C455.736 249.476 462.388 316.749 482.995 398.852H455.322C425.213 330.121 403.633 263.18 388.885 181.192H458.303Z" fill="#B86767"/>
<path fill-rule="evenodd" clip-rule="evenodd" d="M486.41 426.946L485.392 410.285C479.434 412.054 471.971 411.36 463.004 408.202C453.361 415.138 441.223 419.874 426.589 422.41C425.472 422.604 424.721 423.68 424.912 424.813C424.924 424.887 424.94 424.96 424.96 425.031L426.367 430.07H463.004H484.375L486.41 426.946Z" fill="black"/>
<path fill-rule="evenodd" clip-rule="evenodd" d="M390.018 426.946L389.001 410.285C383.042 412.054 375.58 411.36 366.612 408.202C356.97 415.138 344.831 419.874 330.197 422.41C329.08 422.604 328.33 423.68 328.52 424.813C328.533 424.887 328.549 424.96 328.569 425.031L329.976 430.07H366.612H387.983L390.018 426.946Z" fill="black"/>
<path fill-rule="evenodd" clip-rule="evenodd" d="M305.362 120.178C300.919 119.249 290.075 111.059 288.206 112.722C285.442 115.182 287.907 122.736 290.811 126.494C296.239 133.517 300.733 135.919 311.84 139.064C317.648 140.708 323.927 144.005 330.678 148.952L331.568 133.02L315.934 124.298C313.74 115.821 311.118 111.556 308.067 111.503C305.723 110.396 309.805 121.107 305.362 120.178ZM332.271 83.8704C335.142 89.0447 337.932 94.6183 336.47 96.2124C335.007 97.8065 331.36 95.5796 329.615 98.2282C328.452 99.9939 334.683 102.783 348.307 106.596L374.169 130.643L387.313 116.317L351.72 96.5209C345.802 89.3833 339.97 83.8399 334.225 79.8908C332.47 79.1466 329.4 78.6962 332.271 83.8704Z" fill="#784931"/>
<mask id="mask0" style="mask-type:alpha" maskUnits="userSpaceOnUse" x="350" y="101" width="60" height="33">
<path fill-rule="evenodd" clip-rule="evenodd" d="M403.495 108.038C391.161 109.887 374.329 109.887 355.047 101.411L350.597 118.1C364.582 128.335 383.135 135.609 397.927 132.796C409.584 130.578 413.325 115.233 403.495 108.038Z" fill="white"/>
</mask>
<g mask="url(#mask0)">
<path fill-rule="evenodd" clip-rule="evenodd" d="M404.647 111.907C392.18 111.773 375.556 109.099 357.817 97.6652L350.851 113.441C363.086 125.772 380.291 135.904 395.334 135.475C407.189 135.137 413.248 120.575 404.647 111.907Z" fill="#95AB97"/>
</g>
<mask id="mask1" style="mask-type:alpha" maskUnits="userSpaceOnUse" x="310" y="71" width="161" height="152">
<path fill-rule="evenodd" clip-rule="evenodd" d="M403.817 71.8519C402.247 92.3336 394.346 114.906 387.861 137.206C374.626 140.559 352.431 136.606 321.277 125.349C313.55 141.583 309.977 153.157 310.56 160.07C337.289 174.249 360.198 180.569 379.071 180.985C378.463 192.353 379.826 203.174 384.405 213.063C393.818 233.388 448.935 214.564 467.467 218.269C479.073 179.996 456.633 164.441 456.615 139.951C456.596 113.133 435.39 71.8519 432.27 71.8519H403.817Z" fill="white"/>
</mask>
<g mask="url(#mask1)">
<path fill-rule="evenodd" clip-rule="evenodd" d="M403.817 71.8519C402.247 92.3336 394.346 114.906 387.861 137.206C374.626 140.559 352.431 136.606 321.277 125.349C313.55 141.583 309.977 153.157 310.56 160.07C337.289 174.249 360.198 180.569 379.071 180.985C378.463 192.353 379.826 203.174 384.405 213.063C393.818 233.388 448.935 214.564 467.467 218.269C479.073 179.996 456.633 164.441 456.615 139.951C456.596 113.133 435.39 71.8519 432.27 71.8519H403.817Z" fill="#CEE5D0"/>
</g>
<path fill-rule="evenodd" clip-rule="evenodd" d="M142.93 43.7752C149.95 56.8605 149.116 90.0523 140.043 92.391C136.425 93.3236 128.717 91.0391 120.872 86.3108L125.796 121.147H96.7205L106.729 74.4926C101.147 67.9402 97.3695 59.9103 98.0008 50.9126C99.8199 24.9866 135.91 30.69 142.93 43.7752Z" fill="#57331F"/>
<path fill-rule="evenodd" clip-rule="evenodd" d="M131.446 29.5235C127.473 28.3121 121.705 27.9012 119.279 28.1791C120.659 24.8725 121.207 21.1886 120.76 17.6016C120.326 14.1161 118.769 11.1484 117.329 8.03857C116.665 6.60514 115.912 5.17952 114.79 4.08311C113.648 2.9661 112.201 2.22878 110.684 1.87701C109.132 1.51695 107.509 1.54693 105.954 1.87369C105.266 2.01823 104.649 2.33269 103.975 2.50749C103.284 2.6866 102.949 2.25427 102.447 1.81978C101.239 0.772887 99.4678 0.256079 97.9392 0.0711138C96.2242 -0.136312 94.4447 0.122384 92.8091 0.686166C91.2171 1.23501 89.6877 2.12624 88.5366 3.4246C88.0241 4.00255 87.5589 4.66037 87.2566 5.38666C87.1326 5.68471 87.1121 5.86128 86.8147 5.97046C86.5396 6.07154 86.2179 6.07447 85.934 6.17066C83.189 7.10037 80.8421 9.22131 79.5642 11.9445C78.8186 13.5332 78.4654 16.3304 78.5622 19.4655C78.6589 22.6007 81.4898 30.7811 84.1375 33.765C86.5008 36.4283 89.9747 38.1859 93.3272 38.9553C91.102 41.4988 89.6207 44.6771 88.5253 47.9096C87.3355 51.4209 86.5991 55.0694 86.3272 58.7867C86.0689 62.3186 86.045 66.0537 86.873 69.5102C87.6476 72.7426 89.3041 75.3943 92.0694 77.0766C93.336 77.8472 94.6989 78.4261 96.0696 78.9552C97.4205 79.4766 98.7755 79.9836 100.191 80.2762C102.869 80.8297 105.954 80.7347 108.017 78.603C108.761 77.8345 109.579 76.8689 110.121 75.9301C110.316 75.5925 110.434 75.3717 110.197 75.0417C109.913 74.6464 109.454 74.3436 109.089 74.0344C107.01 72.2716 105.722 69.9182 105.398 67.1215C105.069 64.2838 105.831 60.6211 108.59 59.3827C111.995 57.854 115.746 59.6087 118.773 61.2444C120.059 56.7041 122.701 52.616 126.842 50.5333C131.423 48.2293 136.681 47.9596 141.389 45.9827C142.616 45.4676 143.865 44.8828 144.769 43.8332C145.146 43.3945 145.589 42.8254 145.74 42.2453C145.938 41.4831 145.446 40.8442 145.066 40.25C143.053 37.0996 135.418 30.735 131.446 29.5235Z" fill="black"/>
<path fill-rule="evenodd" clip-rule="evenodd" d="M44.1701 272.581H137.762L150.025 422.803H10.7061L44.1701 272.581Z" fill="#C5CFD6"/>
<path fill-rule="evenodd" clip-rule="evenodd" d="M44.1701 272.581H72.9548L90.1831 422.803H10.7061L44.1701 272.581Z" fill="black" fill-opacity="0.1"/>
<path fill-rule="evenodd" clip-rule="evenodd" d="M245.841 267.132C251.992 283.061 262.732 335.399 275.636 414.453L260.886 418.757C245.364 384.402 234.138 354.487 229.632 338.703C221.917 311.678 216.048 287.898 214.564 279.017C211.027 257.84 241.776 256.607 245.841 267.132ZM199.306 311.541C154.401 318.004 90.7393 324.678 85.2912 325.427C77.6556 326.477 71.8857 314.478 80.8361 310.94C95.0778 305.311 144.952 287.694 169.006 282.71C175.918 281.278 182.617 279.948 188.916 278.745C207.638 275.171 217.338 308.946 199.306 311.541Z" fill="#57331F"/>
<path fill-rule="evenodd" clip-rule="evenodd" d="M132.534 221.699C207.061 240.69 245.144 252.86 246.784 258.21C246.802 258.27 246.819 258.33 246.834 258.389C246.872 258.436 246.908 258.484 246.943 258.532C261.713 278.844 270.558 378.012 273.461 385.437L245.159 389.659C234.333 349.513 199.696 321.546 200.616 273.464C200.367 272.054 200.304 270.717 200.407 269.452L123.373 230.236V221.699H132.534Z" fill="#7D3336"/>
<path fill-rule="evenodd" clip-rule="evenodd" d="M136.629 221.699C147.426 224.801 203.541 248.333 232.656 260.85C251.925 269.133 245.851 298.994 234.94 306.767C234.88 307.244 234.683 307.568 234.333 307.714C175.632 332.043 129.194 319.278 113.681 323.356L106.506 300.722L129.772 292.74C122.724 291.329 116.234 290.07 110.68 289.096C74.8042 282.804 64.3425 263.599 70.528 221.699H136.629Z" fill="#B86767"/>
<path fill-rule="evenodd" clip-rule="evenodd" d="M85.7055 307.343C81.8595 307.711 79.1293 308.288 77.5148 309.076C75.5513 310.033 72.8456 311.758 69.3976 314.249C70.5086 316.527 80.4931 336.998 99.3512 375.663C105.406 374.686 107.805 372.375 106.548 368.732C105.292 365.088 104.279 362.046 103.508 359.607L102.312 324.856C102.289 324.187 101.728 323.664 101.059 323.687C101.048 323.687 101.036 323.688 101.025 323.688L95.6792 324.024C92.6415 321.565 90.6373 319.341 89.6667 317.351C88.8781 315.734 88.442 313.183 88.3585 309.697L88.3585 309.697C88.3264 308.359 87.216 307.3 85.8782 307.332C85.8205 307.334 85.7629 307.337 85.7055 307.343Z" fill="black"/>
<path fill-rule="evenodd" clip-rule="evenodd" d="M253.822 412.387C252.466 416.005 251.789 418.712 251.789 420.509C251.789 422.693 252.153 425.881 252.881 430.072C255.415 430.072 278.191 430.072 321.21 430.072C322.985 424.202 321.96 421.033 318.135 420.565C314.309 420.097 311.131 419.674 308.601 419.297L276.842 405.139C276.231 404.866 275.515 405.141 275.242 405.752C275.238 405.763 275.233 405.773 275.229 405.784L273.187 410.736C269.646 412.388 266.768 413.214 264.554 413.214C262.755 413.214 260.27 412.488 257.1 411.035L257.1 411.035C255.884 410.477 254.446 411.011 253.888 412.227C253.864 412.28 253.842 412.333 253.822 412.387Z" fill="black"/>
<path fill-rule="evenodd" clip-rule="evenodd" d="M41.3659 207.186L66.6825 207.285C51.0507 257.747 42.6118 284.522 41.3659 287.61C38.5626 294.557 44.4947 305.138 47.0315 310.824C38.7692 314.521 39.6496 300.829 29.2269 305.678C19.7136 310.104 12.4769 318.123 1.4856 311.341C0.134288 310.507 -1.34653 307.368 2.23131 304.915C11.145 298.803 23.9902 288.106 25.7258 284.585C28.0926 279.783 33.3059 253.983 41.3659 207.186ZM189.739 206.206L228.383 234.583C238.864 237.411 247.62 240.93 254.652 245.139C256.313 246.653 258.321 249.718 251.432 249.189C244.543 248.659 237.273 248.411 236.322 250.761C235.372 253.111 239.541 255.921 237.619 259.091C236.338 261.205 230.286 255.905 219.464 243.192L181.196 227.323L189.739 206.206Z" fill="#57331F"/>
<path fill-rule="evenodd" clip-rule="evenodd" d="M113.312 100.954L123.787 99.1575C162.655 132.734 178.62 197.238 226.263 231.409L214.795 245.623C132.144 235.389 111.658 156.71 113.312 100.954Z" fill="#BB9C66"/>
<path fill-rule="evenodd" clip-rule="evenodd" d="M67.6452 232.602C109.649 232.602 140.546 232.602 160.337 232.602C164.572 232.602 163.774 226.487 163.162 223.4C156.095 187.783 128.511 149.388 128.511 98.6873L101.775 94.4947C79.6599 130.062 72.0123 173.852 67.6452 232.602Z" fill="#C7D1D9"/>
<path fill-rule="evenodd" clip-rule="evenodd" d="M99.7614 94.4947C100.664 94.4947 101.492 94.5512 102.243 94.6642L110.618 95.1426C134.632 176.53 141.255 230.83 130.487 258.043L57.5308 258.045C53.2086 268.124 49.0726 276.603 45.1228 283.484H25.2437C23.3728 222.992 37.7551 171.649 68.3904 129.455C64.5075 128.34 61.4321 125.736 59.1649 121.645C49.3927 104.012 52.9219 94.3038 63.3653 91.1126C73.8088 87.9215 83.1222 94.4947 99.7614 94.4947Z" fill="#F7D59C"/>
<path fill-rule="evenodd" clip-rule="evenodd" d="M84.6058 258.043L57.5312 258.044C62.5734 246.287 67.8689 232.354 73.4178 216.246C75.7123 235.441 79.4416 249.375 84.6058 258.043Z" fill="black" fill-opacity="0.1"/>
</svg>

<svg width="487" height="431" fill="none" xmlns="http://www.w3.org/2000/svg"><path fill-rule="evenodd" clip-rule="evenodd" d="M425.909 67.381c-11.72 0-15.982-14.248-22.64-22.067-4.764-5.595-12.895-3.926-15.301-11.758C381.916 13.86 398.113 0 419.244 0c21.13 0 35.377 12.157 38.454 30.432 3.076 18.274-10.659 36.95-31.789 36.95Z" fill="#2C1B18"/><path fill-rule="evenodd" clip-rule="evenodd" d="M393.973 28.255c-5.942 11.248-5.236 39.778 2.444 41.789 3.063.801 9.587-1.162 16.227-5.227l-4.168 29.944h24.611l-8.472-40.102c4.725-5.632 7.923-12.535 7.388-20.269-1.539-22.285-32.087-17.382-38.03-6.135Z" fill="#915B3C"/><path fill-rule="evenodd" clip-rule="evenodd" d="M392.497 28.319c4.706.897 14.185 5.46 21.743 12.005a6.33 6.33 0 0 1 3.007-.753c3.487 0 6.314 2.797 6.314 6.248a6.175 6.175 0 0 1-1.266 3.752c1.496 2.505 2.517 5.135 2.852 7.84 5.185 0 24.108-19.923 5.257-38.667-18.851-18.744-46.093 8.014-37.907 9.575Z" fill="#2C1B18"/><path fill-rule="evenodd" clip-rule="evenodd" d="m441.291 181.192-37.563 131.444-17.668 98.69h-17.733l17.702-230.134h55.262Z" fill="#915B3C"/><path fill-rule="evenodd" clip-rule="evenodd" d="m441.291 181.192-37.563 131.444-17.668 98.69h-17.733l17.702-230.134h55.262Z" fill="#000" fill-opacity=".1"/><path fill-rule="evenodd" clip-rule="evenodd" d="M458.172 181.192c-2.621 68.284-1.588 105.528-1.001 111.732.587 6.204 3.917 47.754 26.61 120.485h-18.444c-30.053-69.773-40.545-111.323-43.992-120.485-3.447-9.162-13.627-46.406-28.489-111.732h65.316Z" fill="#915B3C"/><path fill-rule="evenodd" clip-rule="evenodd" d="M442.097 181.192c-9.771 45.23-26.67 117.429-50.697 216.597h-25.937c-1.916-101.786 6.234-168.779 20.346-216.597h56.288Z" fill="#7D3336"/><path fill-rule="evenodd" clip-rule="evenodd" d="M458.303 181.192c-2.567 68.284 4.085 135.557 24.692 217.66h-27.673c-30.109-68.731-51.689-135.672-66.437-217.66h69.418Z" fill="#B86767"/><path fill-rule="evenodd" clip-rule="evenodd" d="m486.41 426.946-1.018-16.661c-5.958 1.769-13.421 1.075-22.388-2.083-9.643 6.936-21.781 11.672-36.415 14.208-1.117.194-1.868 1.27-1.677 2.403.012.074.028.147.048.218l1.407 5.039H484.375l2.035-3.124ZM390.018 426.946l-1.017-16.661c-5.959 1.769-13.421 1.075-22.389-2.083-9.642 6.936-21.781 11.672-36.415 14.208-1.117.194-1.867 1.27-1.677 2.403.013.074.029.147.049.218l1.407 5.039H387.983l2.035-3.124Z" fill="#000"/><path fill-rule="evenodd" clip-rule="evenodd" d="M305.362 120.178c-4.443-.929-15.287-9.119-17.156-7.456-2.764 2.46-.299 10.014 2.605 13.772 5.428 7.023 9.922 9.425 21.029 12.57 5.808 1.644 12.087 4.941 18.838 9.888l.89-15.932-15.634-8.722c-2.194-8.477-4.816-12.742-7.867-12.795-2.344-1.107 1.738 9.604-2.705 8.675Zm26.909-36.308c2.871 5.175 5.661 10.748 4.199 12.342-1.463 1.594-5.11-.632-6.855 2.016-1.163 1.766 5.068 4.555 18.692 8.368l25.862 24.047 13.144-14.326-35.593-19.796c-5.918-7.138-11.75-12.681-17.495-16.63-1.755-.744-4.825-1.195-1.954 3.98Z" fill="#784931"/><mask id="a" style="mask-type:alpha" maskUnits="userSpaceOnUse" x="350" y="101" width="60" height="33"><path fill-rule="evenodd" clip-rule="evenodd" d="M403.495 108.038c-12.334 1.849-29.166 1.849-48.448-6.627l-4.45 16.689c13.985 10.235 32.538 17.509 47.33 14.696 11.657-2.218 15.398-17.563 5.568-24.758Z" fill="#fff"/></mask><g mask="url(#a)"><path fill-rule="evenodd" clip-rule="evenodd" d="M404.647 111.907c-12.467-.134-29.091-2.808-46.83-14.242l-6.966 15.776c12.235 12.331 29.44 22.463 44.483 22.034 11.855-.338 17.914-14.9 9.313-23.568Z" fill="#95AB97"/></g><mask id="b" style="mask-type:alpha" maskUnits="userSpaceOnUse" x="310" y="71" width="161" height="152"><path fill-rule="evenodd" clip-rule="evenodd" d="M403.817 71.852c-1.57 20.482-9.471 43.054-15.956 65.354-13.235 3.353-35.43-.6-66.584-11.857-7.727 16.234-11.3 27.808-10.717 34.721 26.729 14.179 49.638 20.499 68.511 20.915-.608 11.368.755 22.189 5.334 32.078 9.413 20.325 64.53 1.501 83.062 5.206 11.606-38.273-10.834-53.828-10.852-78.318-.019-26.818-21.225-68.1-24.345-68.1h-28.453Z" fill="#fff"/></mask><g mask="url(#b)"><path fill-rule="evenodd" clip-rule="evenodd" d="M403.817 71.852c-1.57 20.482-9.471 43.054-15.956 65.354-13.235 3.353-35.43-.6-66.584-11.857-7.727 16.234-11.3 27.808-10.717 34.721 26.729 14.179 49.638 20.499 68.511 20.915-.608 11.368.755 22.189 5.334 32.078 9.413 20.325 64.53 1.501 83.062 5.206 11.606-38.273-10.834-53.828-10.852-78.318-.019-26.818-21.225-68.1-24.345-68.1h-28.453Z" fill="#CEE5D0"/></g><path fill-rule="evenodd" clip-rule="evenodd" d="M142.93 43.775c7.02 13.086 6.186 46.277-2.887 48.616-3.618.933-11.326-1.352-19.171-6.08l4.924 34.836H96.72l10.009-46.654c-5.582-6.553-9.36-14.583-8.728-23.58 1.819-25.926 37.909-20.223 44.929-7.138Z" fill="#57331F"/><path fill-rule="evenodd" clip-rule="evenodd" d="M131.446 29.523c-3.973-1.21-9.741-1.622-12.167-1.344 1.38-3.306 1.928-6.99 1.481-10.577-.434-3.486-1.991-6.454-3.431-9.563-.664-1.434-1.417-2.86-2.539-3.956-1.142-1.117-2.589-1.854-4.106-2.206-1.552-.36-3.175-.33-4.73-.003-.688.144-1.305.459-1.979.633-.691.18-1.026-.253-1.528-.687C101.239.773 99.467.256 97.939.07c-1.715-.207-3.494.051-5.13.615-1.592.549-3.121 1.44-4.272 2.739-.513.578-.978 1.235-1.28 1.962-.124.298-.145.474-.442.583-.275.102-.597.104-.881.2-2.745.93-5.092 3.051-6.37 5.774-.745 1.59-1.099 4.386-1.002 7.521.097 3.136 2.928 11.316 5.576 14.3 2.363 2.663 5.837 4.42 9.19 5.19-2.226 2.544-3.707 5.722-4.803 8.955a43.82 43.82 0 0 0-2.198 10.877c-.258 3.532-.282 7.267.546 10.723.775 3.233 2.431 5.884 5.196 7.567 1.267.77 2.63 1.35 4 1.878 1.352.522 2.706 1.029 4.122 1.321 2.678.554 5.763.459 7.826-1.673.744-.768 1.562-1.734 2.104-2.673.195-.338.313-.558.076-.888-.284-.396-.743-.698-1.108-1.008-2.079-1.762-3.367-4.116-3.691-6.913-.329-2.837.433-6.5 3.192-7.738 3.405-1.529 7.156.226 10.183 1.861 1.286-4.54 3.928-8.628 8.069-10.71 4.581-2.305 9.839-2.574 14.547-4.551 1.227-.515 2.476-1.1 3.38-2.15.377-.438.82-1.008.971-1.588.198-.762-.294-1.4-.674-1.995-2.013-3.15-9.648-9.515-13.62-10.727Z" fill="#000"/><path fill-rule="evenodd" clip-rule="evenodd" d="M44.17 272.581h93.592l12.263 150.222H10.706L44.17 272.581Z" fill="#C5CFD6"/><path fill-rule="evenodd" clip-rule="evenodd" d="M44.17 272.581h28.785l17.228 150.222H10.706L44.17 272.581Z" fill="#000" fill-opacity=".1"/><path fill-rule="evenodd" clip-rule="evenodd" d="M245.841 267.132c6.151 15.929 16.891 68.267 29.795 147.321l-14.75 4.304c-15.522-34.355-26.748-64.27-31.254-80.054-7.715-27.025-13.584-50.805-15.068-59.686-3.537-21.177 27.212-22.41 31.277-11.885Zm-46.535 44.409c-44.905 6.463-108.567 13.137-114.015 13.886-7.635 1.05-13.405-10.949-4.455-14.487 14.242-5.629 64.116-23.246 88.17-28.23a1309.315 1309.315 0 0 1 19.91-3.965c18.722-3.574 28.422 30.201 10.39 32.796Z" fill="#57331F"/><path fill-rule="evenodd" clip-rule="evenodd" d="M132.534 221.699c74.527 18.991 112.61 31.161 114.25 36.511.018.06.035.12.05.179.038.047.074.095.109.143 14.77 20.312 23.615 119.48 26.518 126.905l-28.302 4.222c-10.826-40.146-45.463-68.113-44.543-116.195a15.69 15.69 0 0 1-.209-4.012l-77.034-39.216v-8.537h9.161Z" fill="#7D3336"/><path fill-rule="evenodd" clip-rule="evenodd" d="M136.629 221.699c10.797 3.102 66.912 26.634 96.027 39.151 19.269 8.283 13.195 38.144 2.284 45.917-.06.477-.257.801-.607.947-58.701 24.329-105.139 11.564-120.652 15.642l-7.175-22.634 23.266-7.982c-7.048-1.411-13.538-2.67-19.092-3.644-35.876-6.292-46.338-25.497-40.152-67.397h66.101Z" fill="#B86767"/><path fill-rule="evenodd" clip-rule="evenodd" d="M85.706 307.343c-3.847.368-6.577.945-8.191 1.733-1.964.957-4.67 2.682-8.117 5.173l29.953 61.414c6.055-.977 8.454-3.288 7.197-6.931a385.035 385.035 0 0 1-3.04-9.125l-1.196-34.751a1.212 1.212 0 0 0-1.253-1.169l-.034.001-5.346.336c-3.038-2.459-5.042-4.683-6.012-6.673-.789-1.617-1.225-4.168-1.308-7.654a2.424 2.424 0 0 0-2.653-2.354ZM253.822 412.387c-1.356 3.618-2.033 6.325-2.033 8.122 0 2.184.364 5.372 1.092 9.563h68.329c1.775-5.87.75-9.039-3.075-9.507a378.415 378.415 0 0 1-9.534-1.268l-31.759-14.158a1.211 1.211 0 0 0-1.6.613l-.013.032-2.042 4.952c-3.541 1.652-6.419 2.478-8.633 2.478-1.799 0-4.284-.726-7.454-2.179a2.423 2.423 0 0 0-3.278 1.352Z" fill="#000"/><path fill-rule="evenodd" clip-rule="evenodd" d="m41.366 207.186 25.317.099c-15.632 50.462-24.071 77.237-25.317 80.325-2.803 6.947 3.129 17.528 5.666 23.214-8.263 3.697-7.382-9.995-17.805-5.146-9.513 4.426-16.75 12.445-27.741 5.663-1.352-.834-2.833-3.973.745-6.426 8.914-6.112 21.76-16.809 23.495-20.33 2.367-4.802 7.58-30.602 15.64-77.399Zm148.373-.98 38.644 28.377c10.481 2.828 19.237 6.347 26.269 10.556 1.661 1.514 3.669 4.579-3.22 4.05-6.889-.53-14.159-.778-15.11 1.572-.95 2.35 3.219 5.16 1.297 8.33-1.281 2.114-7.333-3.186-18.155-15.899l-38.268-15.869 8.543-21.117Z" fill="#57331F"/><path fill-rule="evenodd" clip-rule="evenodd" d="m113.312 100.954 10.475-1.796c38.868 33.576 54.833 98.08 102.476 132.251l-11.468 14.214c-82.651-10.234-103.137-88.913-101.483-144.669Z" fill="#BB9C66"/><path fill-rule="evenodd" clip-rule="evenodd" d="M67.645 232.602h92.692c4.235 0 3.437-6.115 2.825-9.202-7.067-35.617-34.651-74.012-34.651-124.713l-26.736-4.192c-22.115 35.567-29.763 79.357-34.13 138.107Z" fill="#C7D1D9"/><path fill-rule="evenodd" clip-rule="evenodd" d="M99.761 94.495c.903 0 1.731.056 2.482.17l8.375.478c24.014 81.387 30.637 135.687 19.869 162.9l-72.956.002c-4.322 10.079-8.458 18.558-12.408 25.439h-19.88c-1.87-60.492 12.512-111.835 43.147-154.029-3.883-1.115-6.958-3.719-9.225-7.81-9.772-17.633-6.243-27.341 4.2-30.532 10.444-3.192 19.757 3.382 36.396 3.382Z" fill="#F7D59C"/><path fill-rule="evenodd" clip-rule="evenodd" d="m84.606 258.043-27.075.001c5.042-11.757 10.338-25.69 15.887-41.798 2.294 19.195 6.024 33.129 11.188 41.797Z" fill="#000" fill-opacity=".1"/></svg>
